public/assets/icons/documents.svg

<svg width="26" height="26" viewBox="0 0 26 26" fill="none" xmlns="http://www.w3.org/2000/svg">
<path d="M21.053 4.37004C21.1963 4.59528 20.9508 4.85768 20.6905 4.79852V4.79852C20.1814 4.64685 19.618 4.57102 19.0439 4.57102H15.4477C15.2905 4.57102 15.1425 4.49707 15.048 4.37138L13.7897 2.69685V2.69685C13.6371 2.48066 13.7813 2.16602 14.0459 2.16602H17.0289C18.7199 2.16602 20.2096 3.04431 21.053 4.37004Z" fill="#F2F5F9"/>
<path d="M21.8177 7.08435C21.3518 6.74852 20.821 6.49935 20.2469 6.35852C19.8569 6.25018 19.456 6.19602 19.0443 6.19602H15.0143C14.386 6.19602 14.3427 6.14185 14.0068 5.69768L12.4902 3.68268C11.786 2.74018 11.2335 2.16602 9.46768 2.16602H6.95435C4.31102 2.16602 2.16602 4.31102 2.16602 6.95435V19.0443C2.16602 21.6877 4.31102 23.8327 6.95435 23.8327H19.0443C21.6877 23.8327 23.8327 21.6877 23.8327 19.0443V10.9843C23.8327 9.37018 23.0418 7.95102 21.8177 7.08435ZM15.5885 17.701H10.3993C9.97685 17.701 9.65185 17.3652 9.65185 16.9427C9.65185 16.531 9.97685 16.1843 10.3993 16.1843H15.5885C16.011 16.1843 16.3468 16.531 16.3468 16.9427C16.3468 17.3652 16.011 17.701 15.5885 17.701Z" fill="#F2F5F9"/>
</svg>

<svg xmlns="http://www.w3.org/2000/svg" width="26" height="26" fill="none"><path fill="#F2F5F9" d="M21.053 4.37c.143.225-.102.488-.363.429a5.8 5.8 0 0 0-1.646-.228h-3.596a.5.5 0 0 1-.4-.2L13.79 2.697c-.153-.216-.009-.531.256-.531h2.983c1.69 0 3.18.878 4.024 2.204"/><path fill="#F2F5F9" d="M21.818 7.084a4.5 4.5 0 0 0-1.571-.725 4.5 4.5 0 0 0-1.203-.163h-4.03c-.628 0-.671-.054-1.007-.498L12.49 3.683c-.704-.943-1.257-1.517-3.022-1.517H6.954a4.79 4.79 0 0 0-4.788 4.788v12.09a4.79 4.79 0 0 0 4.788 4.789h12.09a4.79 4.79 0 0 0 4.789-4.789v-8.06c0-1.614-.791-3.033-2.015-3.9m-6.23 10.617H10.4a.745.745 0 0 1-.747-.758c0-.412.325-.759.747-.759h5.19a.76.76 0 0 1 .758.759.754.754 0 0 1-.759.758"/></svg>
